CINECOLOR_CANON_EOS_C-LOG.cube
TITLE "Generated by Resolve"
LUT_3D_SIZE 33
0.0606241 0.0626841 0.0662852
0.0606241 0.0626841 0.0662852
0.0606241 0.0626841 0.0662852
0.0606241 0.0626841 0.0662852
0.0606241 0.0626841 0.0662852
0.150439 0.0629435 0.0665599
0.231037 0.0630655 0.0666819
0.304677 0.0631266 0.0667277
0.377264 0.0631418 0.066743
0.443748 0.0631266 0.0667277
0.506386 0.0630808 0.0666972
0.566155 0.063035 0.0666361
0.622049 0.062974 0.0665751
0.67602 0.0628977 0.0664988
0.725124 0.0628214 0.0664225
0.770336 0.0627451 0.0663462
0.810636 0.0626688 0.0662852
0.847028 0.0626078 0.0662089
0.879499 0.0625315 0.0661479
0.906065 0.0624857 0.0660868
0.92871 0.0624399 0.066041
0.946426 0.0623941 0.0659953
0.96022 0.0623636 0.0659648
0.97203 0.0623331 0.0659495
0.980896 0.0623178 0.065919
0.989761 0.0623026 0.0659037
0.99469 0.0622873 0.0658885
0.99469 0.0622873 0.0658885
0.99469 0.0622873 0.0658885
0.99469 0.0622873 0.0658885
0.99469 0.0622873 0.0658885
0.99469 0.0622873 0.0658885
0.99469 0.0622873 0.0658885
0.0606241 0.0626841 0.0662852
0.0606241 0.0626841 0.0662852
0.0606241 0.0626841 0.0662852
0.0606241 0.0626841 0.0662852
0.0606241 0.0626841 0.0662852
0.151415 0.0629435 0.0665599
0.232013 0.0630655 0.0666819
0.304082 0.0631266 0.0667277
0.371405 0.0631418 0.066743
0.43592 0.0631266 0.0667277
0.497566 0.0630961 0.0666972
0.557321 0.063035 0.0666514
0.61323 0.062974 0.0665904
0.667185 0.0629129 0.0665141
0.716289 0.0628367 0.0664378
0.761486 0.0627604 0.0663615
0.802777 0.0626841 0.0663005
0.840146 0.062623 0.0662242
0.872602 0.0625467 0.0661631
0.90016 0.062501 0.0661021
0.923781 0.0624399 0.0660563
0.942489 0.0624094 0.0660105
0.957259 0.0623636 0.06598
0.969085 0.0623484 0.0659495
0.978927 0.0623178 0.0659342
0.987793 0.0623026 0.0659037
0.99469 0.0622873 0.0658885
0.99469 0.0622873 0.0658885
0.99469 0.0622873 0.0658885
0.99469 0.0622873 0.0658885
0.99469 0.0622873 0.0658885
0.99469 0.0622873 0.0658885
0.99469 0.0622873 0.0658885
0.0606241 0.0626841 0.0662852
0.0606241 0.0626841 0.0662852
0.0606241 0.0626841 0.0662852
0.0606241 0.0626841 0.0662852
0.0606241 0.0626841 0.0662852
0.133013 0.0629129 0.0665141
0.212558 0.0630503 0.0666514
0.285557 0.0631113 0.0667277
0.351873 0.0631418 0.066743
0.417334 0.0631266 0.066743
0.477989 0.0630961 0.0667124
0.537179 0.0630503 0.0666667
0.594583 0.0630045 0.0666056
0.647562 0.0629282 0.0665446
0.698604 0.0628672 0.0664683
0.744778 0.0627909 0.066392
0.788022 0.0627146 0.0663157
0.826368 0.0626383 0.0662547
0.859815 0.0625772 0.0661784
0.889342 0.0625162 0.0661173
0.914931 0.0624704 0.0660716
0.934615 0.0624247 0.0660258
0.951354 0.0623789 0.0659953
0.964157 0.0623484 0.0659648
0.97499 0.0623331 0.0659342
0.983856 0.0623026 0.065919
0.99173 0.0622873 0.0659037
0.99469 0.0622873 0.0658885
0.99469 0.0622873 0.0658885
0.99469 0.0622873 0.0658885
0.99469 0.0622873 0.0658885
0.99469 0.0622873 0.0658885
0.99469 0.0622873 0.0658885
0.0606241 0.0626841 0.0662852
0.0606241 0.0626841 0.0662852
0.0606241 0.0626841 0.0662852
0.0606241 0.0626841 0.0662852
0.0606241 0.0626841 0.0662852
0.119463 0.0628672 0.0664836
0.201877 0.063035 0.0666361
0.273075 0.0631113 0.0667124
0.340444 0.0631418 0.066743
0.4056 0.0631418 0.066743
0.466239 0.0631113 0.0667124
0.525979 0.0630655 0.0666667
0.581842 0.0630198 0.0666209
0.636759 0.0629435 0.0665599
0.68751 0.0628824 0.0664836
0.734768 0.0628061 0.0664073
0.778195 0.0627298 0.066331
0.817136 0.0626535 0.0662699
0.852644 0.0625925 0.0661936
0.882445 0.0625315 0.0661326
0.909026 0.0624704 0.0660868
0.929702 0.0624247 0.066041
0.947417 0.0623941 0.0659953
0.961196 0.0623636 0.0659648
0.97203 0.0623331 0.0659495
0.980896 0.0623178 0.065919
0.989761 0.0623026 0.0659037
0.99469 0.0622873 0.0658885
0.99469 0.0622873 0.0658885
0.99469 0.0622873 0.0658885
0.99469 0.0622873 0.0658885
0.99469 0.0622873 0.0658885
0.99469 0.0622873 0.0658885
0.0606241 0.0626841 0.0662852
0.0606241 0.0626841 0.0662852
0.0606241 0.0626841 0.0662852
0.0606241 0.0626841 0.0662852
0.0606241 0.0626841 0.0662852
0.109789 0.0628519 0.066453
0.193133 0.0630198 0.0666361
0.264591 0.0630961 0.0667124
0.33138 0.0631418 0.066743
0.394858 0.0631418 0.066743
0.456901 0.0631113 0.0667277
0.516182 0.0630808 0.0666819
0.573007 0.0630198 0.0666361
0.626947 0.0629587 0.0665599
0.677989 0.0628977 0.0664988
0.726116 0.0628214 0.0664225
0.770336 0.0627451 0.0663462
0.809659 0.0626688 0.0662852
0.846052 0.0626078 0.0662089
0.876539 0.0625467 0.0661479
0.90312 0.0624857 0.0661021
0.92575 0.0624399 0.066041
0.943481 0.0623941 0.0660105
0.958251 0.0623636 0.06598
0.970062 0.0623484 0.0659495
0.978927 0.0623178 0.0659342
0.987793 0.0623026 0.0659037
0.99469 0.0622873 0.0658885
0.99469 0.0622873 0.0658885
0.99469 0.0622873 0.0658885
0.99469 0.0622873 0.0658885
0.99469 0.0622873 0.0658885
0.99469 0.0622873 0.0658885
0.0605478 0.149615 0.0662089
0.0605478 0.143755 0.0662089
0.0605631 0.132036 0.0662242
0.0605631 0.122271 0.0662242
0.0605631 0.116411 0.0662394
0.0991226 0.110689 0.0663767
0.184298 0.106966 0.0665751
0.256291 0.102174 0.0666667
0.323537 0.100252 0.0666972
0.38706 0.0953841 0.0667124
0.449577 0.0934005 0.0666972
0.507332 0.0907912 0.0666667
0.564172 0.0864729 0.0666209
0.619089 0.0844587 0.0665599
0.670115 0.0814679 0.0664836
0.719219 0.0794385 0.0664225
0.762448 0.0779583 0.0663462
0.802762 0.077348 0.0662699
0.839139 0.074342 0.0662089
0.870634 0.0723278 0.0661479
0.899168 0.069337 0.0661021
0.921813 0.0692912 0.066041
0.94052 0.0672923 0.0660105
0.955291 0.064332 0.06598
0.967117 0.0643015 0.0659495
0.977203 0.0623178 0.0659342
0.985824 0.0623026 0.065919
0.99469 0.0622873 0.0658885
0.99469 0.0622873 0.0658885
0.99469 0.0622873 0.0658885
0.99469 0.0622873 0.0658885
0.99469 0.0622873 0.0658885
0.99469 0.0622873 0.0658885
0.0605173 0.218173 0.0661784
0.0605173 0.213107 0.0661784
0.0605173 0.203342 0.0661936
0.0605325 0.194553 0.0661936
0.0605325 0.188708 0.0661936
0.0884565 0.184894 0.0663005
0.176532 0.181201 0.0665141
0.248463 0.178363 0.0666056
0.315389 0.174487 0.0666514
0.379141 0.171572 0.0666667
0.440726 0.169604 0.0666514
0.50042 0.165652 0.0666209
0.556435 0.16463 0.0665599
0.611185 0.162615 0.0665141
0.663188 0.160601 0.0664378
0.711299 0.158572 0.0663767
0.756497 0.156542 0.0663005
0.796796 0.154528 0.0662242
0.834165 0.153475 0.0661631
0.866636 0.151461 0.0661021
0.894194 0.149447 0.066041
0.917815 0.149187 0.0659953
0.937499 0.147402 0.0659495
0.953262 0.145418 0.065919
0.965927 0.143435 0.0658885
0.975906 0.143404 0.0658732
0.984466 0.141436 0.0658427
0.99266 0.141161 0.0658274
0.994629 0.139452 0.0658274
0.994629 0.137499 0.0658274
0.994629 0.137499 0.0658274
0.994629 0.135546 0.0658274
0.994629 0.135546 0.0658274
0.060502 0.281468 0.0661631
0.060502 0.276585 0.0661631
0.060502 0.266239 0.0661631
0.060502 0.25803 0.0661631
0.060502 0.253147 0.0661784
0.0769513 0.248341 0.0662394
0.167788 0.244663 0.0664836
0.24065 0.240864 0.0665751
0.307866 0.23798 0.0666209
0.371298 0.236027 0.0666361
0.432868 0.233097 0.0666209
0.491585 0.231098 0.0665904
0.549386 0.228122 0.0665446
0.603311 0.226123 0.0664836
0.655314 0.225071 0.0664225
0.704402 0.223056 0.0663615
0.749584 0.220905 0.0662852
0.790875 0.219455 0.0662089
0.829221 0.217929 0.0661479
0.861677 0.21593 0.0660716
0.890227 0.214893 0.0660258
0.914824 0.212894 0.0659648
0.934524 0.210895 0.0659342
0.950271 0.209888 0.0658885
0.963073 0.209857 0.0658579
0.973907 0.207874 0.0658427
0.982773 0.205905 0.0658274
0.991638 0.205554 0.0657969
0.994598 0.204898 0.0657969
0.994598 0.202945 0.0657969
0.994598 0.202945 0.0657969
0.994598 0.200992 0.0657969
0.994598 0.200763 0.0657969
0.060502 0.341054 0.0661631
0.060502 0.335698 0.0661631
0.060502 0.325429 0.0661631
0.060502 0.318593 0.0661631
0.060502 0.311742 0.0661631
0.0672313 0.307866 0.0661936
0.159045 0.304753 0.066453
0.233829 0.300435 0.0665599
0.30103 0.297551 0.0666056
0.364446 0.295125 0.0666209
0.426017 0.292668 0.0666209
0.484718 0.289708 0.0665904
0.542504 0.287709 0.0665446
0.596429 0.285023 0.0664836
0.649409 0.28368 0.0664225
0.698222 0.281666 0.0663462
0.743679 0.279637 0.0662852
0.78555 0.278584 0.0662089
0.823301 0.276555 0.0661326
0.856748 0.275517 0.0660716
0.886275 0.273503 0.0660105
0.910872 0.27248 0.0659648
0.931548 0.270481 0.065919
0.948287 0.268498 0.0658732
0.962066 0.267491 0.0658427
0.971923 0.267277 0.0658274
0.981765 0.265492 0.0658122
0.989654 0.264485 0.0657816
0.994583 0.262531 0.0657816
0.994583 0.262531 0.0657816
0.994583 0.260578 0.0657816
0.994583 0.259648 0.0657816
0.994583 0.259602 0.0657816
0.060502 0.397681 0.0661631
0.060502 0.392798 0.0661631
0.0604868 0.383032 0.0661631
0.0604868 0.37496 0.0661631
0.0604868 0.369375 0.0661631
0.0604868 0.364492 0.0661631
0.151278 0.360845 0.0664225
0.226047 0.358038 0.0665446
0.293233 0.355169 0.0666056
0.357168 0.352255 0.0666209
0.418189 0.34931 0.0666056
0.477867 0.346716 0.0665904
0.535637 0.344366 0.0665446
0.590539 0.342 0.0664836
0.642527 0.339361 0.0664225
0.691615 0.338308 0.0663462
0.736797 0.336294 0.0662852
0.780041 0.334356 0.0662089
0.818387 0.332235 0.0661326
0.852811 0.33022 0.0660716
0.882322 0.329183 0.0660105
0.907912 0.327169 0.0659648
0.928588 0.325246 0.065919
0.946303 0.325032 0.0658732
0.960098 0.324132 0.0658427
0.970932 0.322148 0.0658274
0.979797 0.321157 0.0657969
0.988663 0.319188 0.0657816
0.994568 0.319051 0.0657664
0.994568 0.318196 0.0657664
0.994568 0.316243 0.0657664
0.994568 0.315419 0.0657664
0.994568 0.315267 0.0657664
0.060502 0.453346 0.0661631
0.060502 0.447486 0.0661631
0.060502 0.438697 0.0661631
0.060502 0.429908 0.0661631
0.060502 0.424048 0.0661631
0.060502 0.419165 0.0661631
0.144289 0.415518 0.0664225
0.219089 0.412711 0.0665446
0.287373 0.409842 0.0666056
0.350774 0.406943 0.0666209
0.411887 0.403998 0.0666209
0.471992 0.401053 0.0665904
0.528786 0.399054 0.0665446
0.583673 0.396063 0.0664988
0.636637 0.395026 0.0664225
0.685725 0.392035 0.0663615
0.731884 0.390005 0.0662852
0.774136 0.388952 0.0662242
0.812589 0.386938 0.0661479
0.847883 0.385885 0.0660868
0.878019 0.383886 0.0660258
0.903975 0.382834 0.0659648
0.925628 0.38085 0.065919
0.943358 0.379828 0.0658885
0.958129 0.377844 0.0658427
0.968963 0.376852 0.0658274
0.978805 0.374868 0.0657969
0.986679 0.373877 0.0657816
0.994568 0.371908 0.0657664
0.994568 0.371908 0.0657664
0.994568 0.370932 0.0657664
0.994568 0.368978 0.0657664
0.994568 0.368246 0.0657664
0.060502 0.506279 0.0661784
0.060502 0.500984 0.0661784
0.060502 0.491432 0.0661631
0.060502 0.482643 0.0661631
0.060502 0.47776 0.0661631
0.060502 0.472877 0.0661631
0.134829 0.469215 0.0664073
0.211475 0.466423 0.0665446
0.279591 0.462028 0.0666056
0.342977 0.458686 0.0666209
0.405493 0.456916 0.0666209
0.465141 0.454765 0.0665904
0.521935 0.451789 0.0665599
0.576913 0.449943 0.0664988
0.62977 0.447776 0.0664378
0.678843 0.445747 0.0663767
0.725994 0.442756 0.0663005
0.769223 0.441703 0.0662242
0.807568 0.439673 0.0661631
0.843351 0.438636 0.0660868
0.874449 0.436255 0.0660258
0.90103 0.433738 0.06598
0.922683 0.432609 0.0659342
0.94139 0.430625 0.0658885
0.956161 0.429786 0.0658579
0.967971 0.429191 0.0658274
0.977829 0.427604 0.0658122
0.985702 0.426612 0.0657816
0.994568 0.424643 0.0657664
0.994568 0.423667 0.0657664
0.994568 0.421714 0.0657664
0.994568 0.421714 0.0657664
0.994568 0.420737 0.0657664
0.0605173 0.556863 0.0661784
0.0605173 0.55198 0.0661784
0.0605173 0.543191 0.0661784
0.0605173 0.535378 0.0661784
0.0605173 0.529519 0.0661784
0.0605173 0.523659 0.0661784
0.127092 0.520943 0.066392
0.204669 0.517189 0.0665446
0.272786 0.514321 0.0666056
0.337133 0.511421 0.0666361
0.397681 0.508492 0.0666361
0.457328 0.506523 0.0666056
0.51606 0.503548 0.0665751
0.570932 0.501198 0.0665141
0.622919 0.498558 0.066453
0.673945 0.49691 0.066392
0.720668 0.494514 0.0663157
0.763333 0.493462 0.0662547
0.802655 0.491295 0.0661784
0.839048 0.488441 0.0661173
0.870527 0.487404 0.066041
0.897093 0.485405 0.0659953
0.919738 0.484367 0.0659495
0.938445 0.482383 0.0659037
0.954192 0.481361 0.0658732
0.966018 0.479393 0.0658427
0.97586 0.478386 0.0658122
0.984726 0.477394 0.0657969
0.993591 0.475425 0.0657816
0.994568 0.474434 0.0657816
0.994568 0.474434 0.0657816
0.994568 0.47248 0.0657816
0.994568 0.471504 0.0657816
0.0605325 0.606653 0.0661936
0.0605325 0.60177 0.0661936
0.0605325 0.592004 0.0661936
0.0605325 0.584192 0.0661936
0.0605325 0.578332 0.0661936
0.0605325 0.574426 0.0661936
0.119371 0.570718 0.066392
0.197894 0.566979 0.0665446
0.265003 0.564111 0.0666056
0.330571 0.561227 0.0666514
0.391821 0.559274 0.0666514
0.451469 0.556313 0.0666209
0.509224 0.553353 0.0665904
0.564095 0.550378 0.0665446
0.618021 0.54934 0.0664836
0.66807 0.546349 0.0664073
0.715206 0.545296 0.0663462
0.758434 0.54229 0.0662699
0.798733 0.540276 0.0661936
0.835126 0.539223 0.0661326
0.866606 0.537133 0.0660716
0.894148 0.53521 0.0660105
0.917769 0.533196 0.0659648
0.936477 0.532189 0.065919
0.952239 0.53019 0.0658885
0.965042 0.529198 0.0658579
0.974884 0.528191 0.0658274
0.983749 0.526223 0.0658122
0.991623 0.525231 0.0657969
0.994583 0.523262 0.0657816
0.994583 0.523232 0.0657816
0.994583 0.522286 0.0657816
0.994583 0.520333 0.0657816
0.0605478 0.653529 0.0662089
0.0605478 0.648646 0.0662089
0.0605478 0.639857 0.0662089
0.0605478 0.632044 0.0662089
0.0605478 0.626184 0.0662089
0.0605478 0.621714 0.0662089
0.11165 0.618341 0.0663767
0.190127 0.614801 0.0665446
0.259174 0.611566 0.0666209
0.323491 0.609064 0.0666514
0.385977 0.606134 0.0666667
0.444633 0.603189 0.0666361
0.503365 0.600229 0.0666056
0.559197 0.599207 0.0665599
0.61117 0.596216 0.0664988
0.662196 0.594766 0.0664378
0.709331 0.592172 0.0663615
0.753536 0.591134 0.0662852
0.793835 0.588129 0.0662242
0.830213 0.587091 0.0661479
0.862684 0.585061 0.0660868
0.891218 0.583505 0.0660258
0.914839 0.581048 0.06598
0.934524 0.580041 0.0659342
0.950271 0.578042 0.0659037
0.963073 0.577035 0.0658732
0.97293 0.576043 0.0658427
0.981796 0.574075 0.0658274
0.990662 0.573068 0.0658122
0.994598 0.572091 0.0657969
0.994598 0.570138 0.0657969
0.994598 0.569329 0.0657969
0.994598 0.569162 0.0657969
0.0605631 0.697459 0.0662394
0.0605631 0.693553 0.0662242
0.0605631 0.684764 0.0662242
0.0605631 0.676951 0.0662242
0.0605631 0.671824 0.0662242
0.0605631 0.667201 0.0662242
0.10164 0.663432 0.0663615
0.183352 0.659709 0.0665446
0.252369 0.657847 0.0666361
0.317662 0.654948 0.0666667
0.379156 0.652552 0.0666819
0.438773 0.649958 0.0666667
0.496513 0.647105 0.0666209
0.552361 0.645106 0.0665751
0.606287 0.642115 0.0665141
0.656321 0.641077 0.066453
0.703868 0.638071 0.066392
0.748638 0.637034 0.0663157
0.788937 0.634028 0.0662394
0.826291 0.63299 0.0661784
0.858763 0.631952 0.0661173
0.887297 0.628962 0.0660563
0.911894 0.627924 0.0659953
0.931899 0.62594 0.0659495
0.948318 0.624918 0.065919
0.962112 0.623911 0.0658885
0.971954 0.621942 0.0658579
0.980819 0.620935 0.0658427
0.989685 0.619944 0.0658274
0.994614 0.617975 0.0658122
0.994614 0.616999 0.0658122
0.994614 0.616022 0.0658122
0.994614 0.614069 0.0658122
0.0605936 0.739254 0.0662547
0.0605783 0.734569 0.0662547
0.0605783 0.72578 0.0662394
0.0605783 0.718944 0.0662394
0.0605783 0.714061 0.0662394
0.0605783 0.710201 0.0662394
0.0923629 0.706371 0.0663615
0.176577 0.704616 0.0665599
0.246555 0.700801 0.0666514
0.311818 0.697917 0.0666819
0.373312 0.695979 0.0666972
0.432929 0.694011 0.0666819
0.490654 0.691051 0.0666514
0.546487 0.689052 0.0666056
0.599435 0.686061 0.0665446
0.650446 0.684886 0.0664836
0.698558 0.682017 0.0664073
0.742763 0.680369 0.0663462
0.784833 0.67895 0.0662699
0.821393 0.676936 0.0661936
0.854841 0.674922 0.0661326
0.883772 0.672908 0.0660716
0.908965 0.67187 0.0660258
0.929641 0.670848 0.06598
0.946365 0.668559 0.0659342
0.960159 0.66688 0.0659037
0.970993 0.665873 0.0658885
0.979858 0.664881 0.0658579
0.988724 0.662913 0.0658427
0.994629 0.661921 0.0658274
0.994629 0.660945 0.0658274
0.994629 0.658991 0.0658274
0.994629 0.658015 0.0658274
0.0606088 0.777523 0.0662699
0.0606088 0.773617 0.0662699
0.0605936 0.765545 0.0662699
0.0605936 0.758968 0.0662547
0.0605936 0.754101 0.0662547
0.0605936 0.751156 0.0662547
0.0836957 0.746563 0.0663462
0.169802 0.74464 0.0665599
0.240726 0.741802 0.0666514
0.304265 0.738918 0.0666972
0.367468 0.736904 0.0667124
0.426108 0.733776 0.0666972
0.48481 0.731807 0.0666667
0.539651 0.730068 0.0666209
0.594553 0.728054 0.0665751
0.645563 0.725063 0.0664988
0.693019 0.724025 0.0664378
0.738842 0.721996 0.0663615
0.780118 0.719966 0.0663005
0.817487 0.717952 0.0662242
0.851041 0.716915 0.0661631
0.880446 0.715648 0.0661021
0.90602 0.712886 0.066041
0.927687 0.711864 0.0659953
0.944411 0.710857 0.0659648
0.958206 0.70985 0.0659342
0.970016 0.707866 0.0659037
0.978882 0.706584 0.0658885
0.98677 0.705211 0.0658579
0.994644 0.704082 0.0658427
0.994644 0.702464 0.0658427
0.994644 0.701518 0.0658427
0.994644 0.700969 0.0658427
0.0606241 0.81268 0.0662852
0.0606241 0.808774 0.0662852
0.0606241 0.801907 0.0662852
0.0606088 0.795102 0.0662852
0.0606088 0.791196 0.0662699
0.0606088 0.787472 0.0662699
0.0750439 0.784421 0.066331
0.162066 0.782101 0.0665599
0.232059 0.778897 0.0666667
0.298207 0.776425 0.0667124
0.360265 0.77409 0.0667277
0.420249 0.772122 0.0667124
0.477974 0.770138 0.0666972
0.533791 0.768139 0.0666514
0.587701 0.765408 0.0665904
0.638712 0.764126 0.0665293
0.687785 0.762112 0.0664683
0.732967 0.760967 0.066392
0.774685 0.75903 0.0663157
0.812589 0.757992 0.0662547
0.846998 0.755001 0.0661784
0.877501 0.753964 0.0661173
0.90309 0.75285 0.0660716
0.924743 0.750927 0.0660258
0.942473 0.74992 0.06598
0.957229 0.748898 0.0659495
0.968063 0.746929 0.065919
0.97792 0.745922 0.0659037
0.985794 0.74493 0.0658885
0.994659 0.743603 0.0658579
0.994659 0.742489 0.0658579
0.994659 0.741588 0.0658579
0.994659 0.740764 0.0658579
0.0606394 0.844892 0.0663005
0.0606394 0.840986 0.0663005
0.0606394 0.83415 0.0663005
0.0606394 0.829267 0.0663005
0.0606241 0.825376 0.0663005
0.0606241 0.821469 0.0662852
0.0654307 0.818555 0.0663157
0.155291 0.815885 0.0665751
0.226169 0.813321 0.0666819
0.291402 0.81117 0.0667277
0.353826 0.809232 0.066743
0.414405 0.807279 0.066743
0.472114 0.805295 0.0667124
0.528908 0.803296 0.0666667
0.581827 0.801297 0.0666209
0.633814 0.799283 0.0665599
0.682887 0.797269 0.0664836
0.728069 0.796216 0.0664225
0.770321 0.794186 0.0663462
0.808667 0.793149 0.0662699
0.843091 0.791135 0.0662089
0.874571 0.790097 0.0661479
0.90016 0.789059 0.0660868
0.922789 0.78706 0.066041
0.94052 0.786038 0.0660105
0.955291 0.785031 0.0659648
0.967102 0.784039 0.0659495
0.976944 0.783032 0.065919
0.984833 0.781521 0.0659037
0.993698 0.780072 0.0658732
0.994675 0.778103 0.0658732
0.994675 0.777127 0.0658732
0.994675 0.77615 0.0658732
0.0606546 0.873213 0.0663157
0.0606546 0.869307 0.0663157
0.0606546 0.864424 0.0663157
0.0606546 0.859541 0.0663157
0.0606394 0.854658 0.0663157
0.0606394 0.852705 0.0663005
0.0606394 0.848829 0.0663005
0.148531 0.847852 0.0665751
0.219379 0.845273 0.0666819
0.285573 0.842405 0.066743
0.347997 0.841459 0.0667582
0.40856 0.83949 0.0667582
0.466255 0.837522 0.0667277
0.522957 0.835523 0.0666972
0.576944 0.833524 0.0666361
0.628931 0.83151 0.0665751
0.677028 0.831266 0.0665141
0.723171 0.829419 0.0664378
0.766415 0.82739 0.0663615
0.803769 0.826352 0.0663005
0.83917 0.824338 0.0662394
0.870649 0.823301 0.0661631
0.897215 0.822263 0.0661173
0.91986 0.820264 0.0660716
0.938567 0.819242 0.0660258
0.953338 0.818235 0.0659953
0.966125 0.817227 0.0659648
0.975982 0.815259 0.0659342
0.983856 0.814267 0.065919
0.992721 0.81326 0.0659037
0.99469 0.812284 0.0658885
0.99469 0.811307 0.0658885
0.99469 0.81033 0.0658885
0.0606699 0.897612 0.066331
0.0606699 0.894682 0.066331
0.0606699 0.889815 0.066331
0.0606546 0.884932 0.066331
0.0606546 0.882002 0.066331
0.0606546 0.879072 0.0663157
0.0606546 0.877119 0.0663157
0.140795 0.87541 0.0665751
0.212589 0.872602 0.0666972
0.279744 0.871687 0.0667582
0.342153 0.868788 0.0667735
0.402701 0.867811 0.0667735
0.46041 0.865827 0.0667582
0.516213 0.86482 0.0667124
0.571084 0.862821 0.0666667
0.622354 0.860807 0.0666056
0.672129 0.85977 0.0665293
0.717296 0.858717 0.0664683
0.760525 0.856703 0.066392
0.799847 0.85565 0.066331
0.835767 0.854612 0.0662547
0.866728 0.853574 0.0661936
0.894286 0.85156 0.0661326
0.917906 0.850538 0.0660868
0.936614 0.849515 0.066041
0.952361 0.848508 0.0660105
0.964172 0.847501 0.06598
0.974029 0.84651 0.0659648
0.982895 0.845502 0.0659342
0.990768 0.844511 0.065919
0.994705 0.843534 0.0659037
0.994705 0.842557 0.0659037
0.994705 0.841581 0.0659037
0.0606851 0.919097 0.0663462
0.0606851 0.916167 0.0663462
0.0606851 0.912261 0.0663462
0.0606699 0.908354 0.0663462
0.0606699 0.905425 0.066331
0.0606699 0.902495 0.066331
0.0606699 0.900542 0.066331
0.133059 0.898833 0.0665599
0.206775 0.897002 0.0666972
0.272938 0.896101 0.0667582
0.335332 0.894179 0.0667887
0.396338 0.893202 0.0667887
0.454551 0.891218 0.0667735
0.510338 0.890211 0.0667277
0.564233 0.888212 0.0666819
0.617182 0.887175 0.0666209
0.667231 0.885161 0.0665599
0.71339 0.885084 0.0664836
0.756619 0.88307 0.0664225
0.795926 0.882017 0.0663462
0.831327 0.88098 0.0662852
0.862806 0.879057 0.0662242
0.89134 0.878904 0.0661631
0.914961 0.877882 0.0661021
0.934661 0.875883 0.0660716
0.950408 0.875853 0.0660258
0.963211 0.874846 0.0659953
0.973053 0.873838 0.06598
0.981918 0.87187 0.0659495
0.989807 0.871855 0.0659342
0.99472 0.870863 0.065919
0.99472 0.869886 0.065919
0.99472 0.86891 0.065919
0.0606851 0.936675 0.0663615
0.0606851 0.934722 0.0663615
0.0606851 0.930816 0.0663462
0.0606851 0.926909 0.0663462
0.0606851 0.924956 0.0663462
0.0606851 0.923003 0.0663462
0.0606851 0.92105 0.0663462
0.125322 0.920287 0.0665599
0.199985 0.918471 0.0666972
0.267109 0.916793 0.0667735
0.329488 0.915648 0.066804
0.389075 0.914672 0.066804
0.447822 0.91368 0.0667887
0.504479 0.911696 0.066743
0.55935 0.910674 0.0666972
0.611307 0.909636 0.0666361
0.661967 0.908598 0.0665751
0.708492 0.906569 0.0665141
0.751705 0.906508 0.0664378
0.791028 0.904479 0.0663615
0.828397 0.903685 0.0663005
0.859876 0.902403 0.0662394
0.888411 0.902159 0.0661784
0.912032 0.900343 0.0661326
0.931716 0.900298 0.0660868
0.948455 0.898604 0.066041
0.961257 0.898283 0.0660105
0.972091 0.897276 0.0659953
0.980957 0.896284 0.0659648
0.98883 0.896269 0.0659495
0.994736 0.894301 0.0659342
0.994736 0.894301 0.0659342
0.994736 0.893324 0.0659342
0.0607004 0.951324 0.0663615
0.0607004 0.949371 0.0663615
0.0607004 0.946441 0.0663615
0.0607004 0.943511 0.0663615
0.0607004 0.941558 0.0663615
0.0607004 0.939605 0.0663615
0.0607004 0.938628 0.0663615
0.117601 0.937835 0.0665446
0.193194 0.936034 0.0666972
0.26128 0.935149 0.0667735
0.323644 0.934203 0.066804
0.3832 0.932296 0.0668193
0.441855 0.931258 0.066804
0.499596 0.930251 0.0667582
0.553475 0.929229 0.0667124
0.606424 0.928191 0.0666667
0.655482 0.927153 0.0665904
0.703243 0.926116 0.0665293
0.746807 0.925063 0.066453
0.787106 0.924178 0.066392
0.823835 0.923949 0.0663157
0.856931 0.922911 0.0662547
0.885466 0.921874 0.0661936
0.909087 0.920851 0.0661479
0.929763 0.919829 0.0661021
0.946502 0.919799 0.0660563
0.960281 0.918791 0.0660258
0.971115 0.917784 0.0660105
0.97998 0.916793 0.06598
0.987854 0.916762 0.0659648
0.994751 0.91577 0.0659495
0.994751 0.915129 0.0659495
0.994751 0.913817 0.0659495
0.0607156 0.963027 0.0663767
0.0607156 0.962051 0.0663767
0.0607004 0.959121 0.0663767
0.0607004 0.957168 0.0663615
0.0607004 0.955215 0.0663615
0.0607004 0.954238 0.0663615
0.0607004 0.9523 0.0663615
0.10988 0.951492 0.0665293
0.186419 0.950683 0.0666972
0.254475 0.949783 0.0667735
0.3178 0.948837 0.0668193
0.377356 0.947875 0.0668193
0.435996 0.946883 0.066804
0.493736 0.945876 0.0667735
0.548577 0.944854 0.0667277
0.601526 0.944793 0.0666819
0.650584 0.943755 0.0666056
0.697704 0.942718 0.0665446
0.741909 0.941665 0.0664683
0.783185 0.940627 0.0664073
0.819562 0.939574 0.066331
0.85301 0.939513 0.0662699
0.881544 0.938476 0.0662089
0.907134 0.93843 0.0661631
0.927794 0.937407 0.0661173
0.944533 0.9364 0.0660716
0.958328 0.93637 0.066041
0.969146 0.935363 0.0660258
