CINECOLOR_CANON_EOS_C-LOG.cube
TITLE "Generated by Resolve"
LUT_3D_SIZE 5
0.0606241 0.0626841 0.0662852
0.377264 0.0631418 0.066743
0.810636 0.0626688 0.0662852
0.980896 0.0623178 0.065919
0.99469 0.0622873 0.0658885
0.060502 0.341054 0.0661631
0.30103 0.297551 0.0666056
0.743679 0.279637 0.0662852
0.962066 0.267491 0.0658427
0.994583 0.259602 0.0657816
0.0605936 0.739254 0.0662547
0.246555 0.700801 0.0666514
0.698558 0.682017 0.0664073
0.946365 0.668559 0.0659342
0.994629 0.658015 0.0658274
0.0607004 0.951324 0.0663615
0.193194 0.936034 0.0666972
0.655482 0.927153 0.0665904
0.929763 0.919829 0.0661021
0.994751 0.913817 0.0659495
0.0607309 0.995254 0.066392
0.138933 0.995499 0.0666361
0.614313 0.995544 0.0666972
0.911101 0.995041 0.0661936
0.994797 0.994858 0.0659953
0.0603342 0.0623789 0.394278
0.376974 0.0628519 0.382361
0.807401 0.0623789 0.379629
0.979614 0.0620279 0.376349
0.9944 0.0619974 0.375341
0.0601968 0.332937 0.340429
0.291005 0.287495 0.294835
0.735546 0.268635 0.275868
0.958846 0.256672 0.262654
0.994324 0.247608 0.254704
0.0603037 0.73135 0.291524
0.234348 0.691752 0.237827
0.688792 0.672389 0.212314
0.943191 0.658885 0.193698
0.994415 0.648585 0.179278
0.060441 0.948135 0.242481
0.1794 0.931914 0.182559
0.645502 0.923095 0.149737
0.925689 0.915801 0.125322
0.994659 0.909834 0.104173
0.0605173 0.995041 0.191516
0.121492 0.995331 0.121828
0.602502 0.995529 0.0788128
0.905196 0.995056 0.0661936
0.994797 0.994858 0.0659953
0.0606088 0.0626688 0.793988
0.379294 0.0631113 0.785794
0.806683 0.0626535 0.780514
0.978897 0.0622873 0.777279
0.994659 0.0622568 0.775311
0.060441 0.330236 0.750546
0.287282 0.284153 0.717281
0.732769 0.264897 0.70251
0.958007 0.251743 0.691463
0.994446 0.241886 0.684627
0.0604868 0.727626 0.712581
0.226947 0.686976 0.67248
0.683665 0.667247 0.652461
0.941268 0.653086 0.638453
0.994446 0.643183 0.626963
0.0605631 0.946303 0.675563
0.170687 0.929961 0.630076
0.63859 0.92015 0.606271
0.922652 0.912795 0.589319
0.994522 0.905791 0.575601
0.0605478 0.995071 0.636011
0.11162 0.995209 0.586877
0.594461 0.995346 0.560876
0.901305 0.994827 0.541955
0.994553 0.994614 0.526238
0.060853 0.0629129 0.975387
0.382376 0.0633707 0.971069
0.805951 0.0629129 0.96965
0.979156 0.0625467 0.968338
0.994919 0.062501 0.96733
0.0607004 0.327581 0.960891
0.28368 0.280156 0.949844
0.729137 0.260487 0.944747
0.957336 0.247166 0.940475
0.994766 0.235706 0.937514
0.0607767 0.724025 0.948516
0.2224 0.682689 0.932601
0.680613 0.663661 0.924743
0.93962 0.648524 0.91754
0.994766 0.637644 0.912627
0.0608682 0.944656 0.933303
0.164218 0.927352 0.914412
0.634012 0.91754 0.902876
0.920027 0.910201 0.894682
0.994858 0.903197 0.886839
0.0608835 0.995392 0.917037
0.104219 0.995514 0.893202
0.588907 0.995682 0.879942
0.899367 0.995148 0.868864
0.994873 0.994934 0.859052
0.0608835 0.0629435 0.995499
0.383398 0.0634012 0.995972
0.805982 0.0629435 0.995514
0.979202 0.0625925 0.995148
0.994949 0.0625467 0.995117
0.0607614 0.325689 0.995377
0.280827 0.27924 0.995819
0.727245 0.256489 0.995529
0.956436 0.242451 0.995087
0.994842 0.232517 0.99501
0.0608377 0.72018 0.995468
0.217624 0.680537 0.995819
0.676905 0.659785 0.995651
0.93875 0.644739 0.995163
0.994873 0.632898 0.995041
0.0609598 0.943771 0.995575
0.159503 0.925948 0.995865
0.629236 0.916701 0.99585
0.918196 0.9084 0.995346
0.99501 0.90042 0.995163
0.0609903 0.995514 0.995621
0.0956741 0.995636 0.995743
0.584161 0.99585 0.993072
0.89659 0.995331 0.9897
0.995056 0.995102 0.986603
