CINECOLOR_CANON_EOS_C-LOG.cube
TITLE "Generated by Resolve"
LUT_3D_SIZE 9
0.0606241 0.0626841 0.0662852
0.0606241 0.0626841 0.0662852
0.377264 0.0631418 0.066743
0.622049 0.062974 0.0665751
0.810636 0.0626688 0.0662852
0.92871 0.0624399 0.066041
0.980896 0.0623178 0.065919
0.99469 0.0622873 0.0658885
0.99469 0.0622873 0.0658885
0.0606241 0.0626841 0.0662852
0.0606241 0.0626841 0.0662852
0.33138 0.0631418 0.066743
0.573007 0.0630198 0.0666361
0.770336 0.0627451 0.0663462
0.90312 0.0624857 0.0661021
0.970062 0.0623484 0.0659495
0.99469 0.0622873 0.0658885
0.99469 0.0622873 0.0658885
0.060502 0.341054 0.0661631
0.060502 0.311742 0.0661631
0.30103 0.297551 0.0666056
0.542504 0.287709 0.0665446
0.743679 0.279637 0.0662852
0.886275 0.273503 0.0660105
0.962066 0.267491 0.0658427
0.994583 0.262531 0.0657816
0.994583 0.259602 0.0657816
0.0605173 0.556863 0.0661784
0.0605173 0.529519 0.0661784
0.272786 0.514321 0.0666056
0.51606 0.503548 0.0665751
0.720668 0.494514 0.0663157
0.870527 0.487404 0.066041
0.954192 0.481361 0.0658732
0.993591 0.475425 0.0657816
0.994568 0.471504 0.0657816
0.0605936 0.739254 0.0662547
0.0605783 0.714061 0.0662394
0.246555 0.700801 0.0666514
0.490654 0.691051 0.0666514
0.698558 0.682017 0.0664073
0.854841 0.674922 0.0661326
0.946365 0.668559 0.0659342
0.988724 0.662913 0.0658427
0.994629 0.658015 0.0658274
0.0606546 0.873213 0.0663157
0.0606394 0.854658 0.0663157
0.219379 0.845273 0.0666819
0.466255 0.837522 0.0667277
0.677028 0.831266 0.0665141
0.83917 0.824338 0.0662394
0.938567 0.819242 0.0660258
0.983856 0.814267 0.065919
0.99469 0.81033 0.0658885
0.0607004 0.951324 0.0663615
0.0607004 0.941558 0.0663615
0.193194 0.936034 0.0666972
0.441855 0.931258 0.066804
0.655482 0.927153 0.0665904
0.823835 0.923949 0.0663157
0.929763 0.919829 0.0661021
0.97998 0.916793 0.06598
0.994751 0.913817 0.0659495
0.0607309 0.988418 0.066392
0.0607156 0.983536 0.066392
0.166674 0.979934 0.0666819
0.418418 0.978134 0.0668345
0.634897 0.975998 0.0666514
0.807736 0.97377 0.0663767
0.920928 0.972564 0.0661479
0.976074 0.970489 0.0660258
0.994781 0.969467 0.06598
0.0607309 0.995254 0.066392
0.0607309 0.995254 0.066392
0.138933 0.995499 0.0666361
0.394965 0.995712 0.0668498
0.614313 0.995544 0.0666972
0.791089 0.995285 0.0664225
0.911101 0.995041 0.0661936
0.97116 0.994919 0.0660563
0.994797 0.994858 0.0659953
0.0604868 0.0625467 0.127504
0.0605478 0.0625925 0.0995041
0.376196 0.0630503 0.10898
0.619013 0.0628824 0.108812
0.808576 0.0625772 0.108507
0.92665 0.0623484 0.108278
0.979828 0.0622263 0.106157
0.994598 0.0621958 0.106111
0.994598 0.0621958 0.104112
0.0605631 0.062623 0.0884565
0.0606241 0.0626841 0.0662852
0.326513 0.0631266 0.066743
0.569085 0.0630198 0.0666361
0.7664 0.0627451 0.0663615
0.901152 0.0624857 0.0661021
0.969085 0.0623484 0.0659495
0.99469 0.0622873 0.0658885
0.99469 0.0622873 0.0658885
0.060502 0.336172 0.0661631
0.060502 0.305882 0.0661631
0.294209 0.292165 0.0666056
0.536629 0.281849 0.0665446
0.739742 0.273777 0.0662852
0.883314 0.267613 0.0660258
0.960098 0.260655 0.0658579
0.994583 0.255695 0.0657816
0.994583 0.251789 0.0657816
0.0605173 0.55198 0.0661784
0.0605173 0.523659 0.0661784
0.266545 0.508354 0.0666056
0.509331 0.497704 0.0665751
0.71519 0.488655 0.066331
0.86659 0.481559 0.0660563
0.952224 0.47454 0.0658732
0.991623 0.469566 0.0657816
0.994568 0.463706 0.0657664
0.0605783 0.734569 0.0662547
0.0605783 0.7093 0.0662394
0.238758 0.695918 0.0666361
0.483803 0.685191 0.0666514
0.692653 0.676173 0.0664225
0.850904 0.670039 0.0661326
0.944396 0.663005 0.0659342
0.98674 0.657053 0.0658427
0.994629 0.653132 0.0658274
0.0606546 0.869307 0.0663157
0.0606394 0.851728 0.0663005
0.212573 0.841367 0.0666667
0.459403 0.832639 0.0667277
0.671504 0.826566 0.0665141
0.835233 0.819989 0.0662394
0.936584 0.814374 0.0660258
0.982879 0.809384 0.065919
0.99469 0.805447 0.0658885
0.0607004 0.949371 0.0663615
0.0607004 0.939605 0.0663615
0.184466 0.934081 0.0666819
0.435004 0.929305 0.066804
0.649592 0.925032 0.0666056
0.818875 0.921035 0.066331
0.927779 0.916899 0.0661021
0.978256 0.913863 0.0659953
0.994751 0.910887 0.0659495
0.0607309 0.987442 0.066392
0.0607156 0.982559 0.066392
0.157641 0.978943 0.0666667
0.411566 0.977157 0.0668345
0.629007 0.975036 0.0666667
0.801877 0.972808 0.066392
0.917967 0.970626 0.0661631
0.974105 0.969528 0.0660258
0.994781 0.967529 0.06598
0.0607309 0.995254 0.066392
0.0607309 0.995254 0.066392
0.129244 0.995468 0.0666209
0.388128 0.995712 0.0668498
0.606455 0.99556 0.0666972
0.786175 0.995285 0.0664378
0.908141 0.995056 0.0661936
0.969619 0.994919 0.0660563
0.994797 0.994858 0.0659953
0.0603342 0.0623789 0.394278
0.0603189 0.0623789 0.378653
0.376974 0.0628519 0.382361
0.618814 0.0626688 0.381888
0.807401 0.0623789 0.379629
0.92546 0.06215 0.378424
0.979614 0.0620279 0.376349
0.9944 0.0619974 0.376318
0.9944 0.0619974 0.375341
0.0603189 0.0623789 0.365957
0.0603342 0.0623789 0.340551
0.325246 0.0628367 0.329259
0.565866 0.0627451 0.321324
0.763165 0.0624704 0.315175
0.898894 0.062211 0.310018
0.967819 0.0620584 0.30692
0.9944 0.0619974 0.3028
0.9944 0.0619974 0.300984
0.0601968 0.332937 0.340429
0.0602121 0.302678 0.310079
0.291005 0.287495 0.294835
0.53341 0.278645 0.285267
0.735546 0.268635 0.275868
0.881086 0.262501 0.269703
0.958846 0.256672 0.262654
0.994308 0.251514 0.25864
0.994324 0.247608 0.254704
0.0602274 0.54876 0.315221
0.0602426 0.519478 0.283604
0.261799 0.50428 0.265873
0.506004 0.493538 0.25452
0.711498 0.484504 0.243351
0.864378 0.477409 0.234302
0.950988 0.471366 0.227222
0.991379 0.465415 0.22121
0.994339 0.459556 0.216266
0.0603037 0.73135 0.291524
0.0603037 0.705989 0.25713
0.234348 0.691752 0.237827
0.480629 0.681041 0.223056
0.688792 0.672389 0.212314
0.847868 0.665919 0.202808
0.943191 0.658885 0.193698
0.986542 0.652949 0.185687
0.994415 0.648585 0.179278
0.0603799 0.867079 0.267033
0.0603952 0.848554 0.231586
0.207492 0.838193 0.210239
0.454307 0.830472 0.194491
0.667262 0.823438 0.181353
0.83209 0.816342 0.17023
0.934447 0.811261 0.160082
0.98172 0.806287 0.151034
0.994537 0.802365 0.143053
0.060441 0.948135 0.242481
0.0604715 0.938399 0.20499
0.1794 0.931914 0.182559
0.429938 0.927184 0.164828
0.645502 0.923095 0.149737
0.815473 0.918944 0.136568
0.925689 0.915801 0.125322
0.977905 0.912779 0.113344
0.994659 0.909834 0.104173
0.0604868 0.986221 0.217273
0.0605173 0.981384 0.17731
0.151339 0.978759 0.153765
0.406546 0.976043 0.134035
0.623011 0.973953 0.115892
0.798856 0.971756 0.0996109
0.915953 0.969604 0.0853132
0.973098 0.968536 0.073106
0.994781 0.966552 0.06598
0.0605173 0.995041 0.191516
0.0605631 0.995087 0.149523
0.121492 0.995331 0.121828
0.383169 0.995636 0.0991989
0.602502 0.995529 0.0788128
0.782238 0.9953 0.0664378
0.905196 0.995056 0.0661936
0.969192 0.994919 0.0660563
0.994797 0.994858 0.0659953
0.0604257 0.0624857 0.614633
0.0604257 0.0624857 0.604974
0.379019 0.0629435 0.604456
0.618906 0.0627756 0.601389
0.8065 0.0624704 0.600137
0.925551 0.0622416 0.597955
0.979706 0.0621195 0.596872
0.994492 0.0620737 0.595865
0.994492 0.0620737 0.593942
0.0604105 0.0624704 0.587549
0.0603952 0.0624552 0.565286
0.323339 0.0628977 0.554116
0.563943 0.0627909 0.546273
0.762219 0.0625162 0.540185
0.897948 0.0622568 0.536049
0.966873 0.0621042 0.532219
0.994446 0.0620432 0.529046
0.994446 0.0620279 0.526131
0.0602731 0.332036 0.563226
0.0602579 0.301732 0.536095
0.288106 0.286549 0.522972
0.531472 0.275746 0.513207
0.733593 0.267674 0.505196
0.88011 0.259586 0.500069
0.958862 0.253437 0.494072
0.994308 0.247608 0.489143
0.994308 0.244404 0.485252
0.0602731 0.545876 0.540002
0.0602579 0.516564 0.510903
0.258885 0.50135 0.495781
0.503059 0.490593 0.485084
0.709026 0.481559 0.476097
0.862379 0.474449 0.468055
0.949981 0.466453 0.461051
0.990356 0.460868 0.455131
0.994293 0.45658 0.451225
0.0603342 0.729107 0.517754
0.0603037 0.704021 0.486686
0.230701 0.689769 0.470558
0.4757 0.679057 0.458915
0.686488 0.670039 0.448966
0.846677 0.661952 0.439933
0.942138 0.655894 0.431937
0.985473 0.649927 0.425025
0.994324 0.645029 0.419394
0.0603799 0.865141 0.495506
0.0603647 0.846571 0.464408
0.202579 0.836179 0.446281
0.451286 0.828458 0.432731
0.663966 0.820432 0.421622
0.829038 0.814298 0.41178
0.933349 0.808225 0.404746
0.981598 0.803555 0.396841
0.9944 0.799298 0.390188
0.0604257 0.947143 0.474189
0.0604105 0.936385 0.441108
0.17641 0.930846 0.422934
0.426886 0.926009 0.408438
0.641901 0.921019 0.396551
0.813046 0.916838 0.38555
0.923552 0.913695 0.376532
0.97673 0.910643 0.368597
0.994446 0.907668 0.361913
0.060441 0.986175 0.45185
0.0604257 0.980316 0.417762
0.146975 0.977646 0.397559
0.402472 0.974914 0.383124
0.620859 0.972793 0.371237
0.795697 0.970565 0.36022
0.913741 0.96936 0.351186
0.971832 0.967285 0.34226
0.994492 0.96527 0.334371
0.060441 0.994965 0.429465
0.060441 0.994965 0.394385
0.117342 0.995148 0.375479
0.379034 0.995422 0.359701
0.598321 0.99527 0.346838
0.778988 0.99501 0.334844
0.902937 0.994766 0.325795
0.967926 0.994629 0.315847
0.994507 0.994568 0.307515
0.0606088 0.0626688 0.793988
0.0654154 0.0626841 0.788235
0.379294 0.0631113 0.785794
0.619074 0.0629435 0.781765
0.806683 0.0626535 0.780514
0.924743 0.0624094 0.778363
0.978897 0.0622873 0.777279
0.994659 0.0622568 0.776272
0.994659 0.0622568 0.775311
0.0605783 0.0626383 0.771847
0.0605631 0.062623 0.753567
0.321553 0.0630655 0.74342
0.563134 0.0629587 0.737545
0.76141 0.0626841 0.732464
0.897124 0.0624094 0.728344
0.967025 0.0622568 0.72433
0.994598 0.0621958 0.722347
0.994598 0.0621958 0.720424
0.060441 0.330236 0.750546
0.0604105 0.299947 0.728405
0.287282 0.284153 0.717281
0.529671 0.273228 0.709514
0.732769 0.264897 0.70251
0.878279 0.257527 0.696452
0.958007 0.251743 0.691463
0.994461 0.245853 0.688487
0.994446 0.241886 0.684627
0.060441 0.545052 0.732265
0.0604105 0.51574 0.70721
0.256107 0.498573 0.695094
0.500267 0.487968 0.685435
0.707744 0.478767 0.676509
0.861524 0.471656 0.670436
0.950103 0.463645 0.66421
0.990478 0.457694 0.659541
0.994415 0.453773 0.654704
0.0604868 0.727626 0.712581
0.060441 0.701244 0.687022
0.226947 0.686976 0.67248
0.473869 0.676265 0.662348
0.683665 0.667247 0.652461
0.844831 0.659144 0.645426
0.941268 0.653086 0.638453
0.98558 0.648096 0.631678
0.994446 0.643183 0.626963
0.0605325 0.864302 0.694057
0.0604868 0.844755 0.666819
0.199786 0.834348 0.650752
0.448005 0.825635 0.639246
0.662104 0.818586 0.629587
0.828153 0.812451 0.620401
0.932464 0.806378 0.614389
0.980697 0.801373 0.607507
0.994492 0.797436 0.600702
0.0605631 0.946303 0.675563
0.0605325 0.935531 0.646601
0.170687 0.929961 0.630076
0.423072 0.924239 0.61709
0.63859 0.92015 0.606271
0.810498 0.915953 0.597284
0.922652 0.912795 0.589319
0.976806 0.908766 0.582422
0.994522 0.905791 0.575601
0.0605631 0.985336 0.655314
0.0605325 0.980331 0.626337
0.142596 0.976761 0.608225
0.399634 0.975006 0.594888
0.617029 0.972885 0.58407
0.79379 0.970199 0.574121
0.912825 0.96846 0.56553
0.971893 0.966369 0.558267
0.994553 0.965331 0.551431
0.0605478 0.995071 0.636011
0.0605325 0.995056 0.605081
0.11162 0.995209 0.586877
0.374228 0.995499 0.573602
0.594461 0.995346 0.560876
0.776104 0.995071 0.551888
0.901305 0.994827 0.541955
0.96698 0.994675 0.533089
0.994553 0.994614 0.526238
0.0607614 0.0628214 0.915969
0.0703746 0.0628519 0.911208
0.380331 0.0632792 0.908751
0.619242 0.0630961 0.906661
0.80676 0.0628061 0.905409
0.924895 0.0625772 0.904219
0.979065 0.0624552 0.902464
0.994812 0.0624094 0.902144
0.994812 0.0624094 0.901183
0.0607462 0.0628061 0.899657
0.0607309 0.0627909 0.887175
0.320745 0.0632334 0.88188
0.562325 0.0631266 0.877943
0.760586 0.0628519 0.874784
0.897292 0.0625925 0.87068
0.967193 0.0624247 0.868605
0.994766 0.0623636 0.866621
0.994766 0.0623636 0.865675
0.0606088 0.329427 0.887053
0.0605783 0.298161 0.871702
0.285512 0.281987 0.863508
0.526894 0.271183 0.857694
0.73135 0.263111 0.853361
0.87747 0.255024 0.849485
0.95819 0.248005 0.845472
0.994629 0.244022 0.843473
0.994629 0.239124 0.840589
0.0606088 0.543084 0.87364
0.0605783 0.512978 0.857313
0.254322 0.497765 0.84715
0.498909 0.48603 0.840421
0.705409 0.477119 0.834424
0.859739 0.46891 0.830243
0.949294 0.462852 0.825299
0.98967 0.456901 0.821363
0.994583 0.451026 0.8177
0.0606546 0.72488 0.860258
0.0606241 0.699458 0.841993
0.226154 0.685191 0.831815
0.471611 0.673503 0.823194
0.681865 0.665461 0.816251
0.84303 0.657374 0.810193
0.940459 0.650324 0.805188
0.984771 0.645335 0.801236
0.994614 0.640436 0.79736
0.0607004 0.862516 0.846876
0.0606699 0.843244 0.826688
0.19704 0.832563 0.815381
0.445823 0.824033 0.805982
0.659342 0.816815 0.799039
0.826368 0.8103 0.79202
0.93164 0.804593 0.786999
0.980545 0.799603 0.781109
0.994659 0.795621 0.776272
0.0607309 0.945495 0.833478
0.0607004 0.934722 0.811368
0.167956 0.929152 0.799161
0.42031 0.923445 0.789685
0.636805 0.919341 0.78085
0.808698 0.914183 0.773831
0.921828 0.911009 0.766873
0.975982 0.907958 0.761929
0.99469 0.904005 0.756115
0.0607462 0.985504 0.818128
0.0607156 0.979614 0.796002
0.138888 0.976913 0.781811
0.394919 0.974197 0.772412
0.614252 0.972076 0.763592
0.791012 0.969848 0.755611
0.911009 0.967651 0.747677
0.971069 0.965545 0.741756
0.994705 0.964508 0.735927
0.0607309 0.995254 0.803708
0.0607004 0.995224 0.77966
0.107927 0.995377 0.765393
0.371466 0.995651 0.755093
0.591684 0.995514 0.744366
0.773312 0.995239 0.7364
0.900191 0.99498 0.72845
0.96614 0.994827 0.721553
0.994705 0.994766 0.715709
0.060853 0.0629129 0.975387
0.0723888 0.0629587 0.972564
0.382376 0.0633707 0.971069
0.619333 0.0632029 0.970901
0.805951 0.0629129 0.96965
0.925002 0.0626688 0.968444
0.979156 0.0625467 0.968338
0.994919 0.062501 0.96733
0.994919 0.062501 0.96733
0.0608377 0.0628977 0.966766
0.0608377 0.0628977 0.961975
0.320867 0.0633402 0.958602
0.562432 0.0632334 0.956588
0.759716 0.062974 0.955352
0.896422 0.0626993 0.953185
0.966323 0.0625467 0.952071
0.994888 0.0624857 0.951049
0.994888 0.0624857 0.950088
0.0607004 0.327581 0.960891
0.0607004 0.297307 0.954192
0.28368 0.280156 0.949844
0.52604 0.269352 0.946914
0.729137 0.260487 0.944747
0.876616 0.253208 0.942428
0.957336 0.247166 0.940475
0.994766 0.240467 0.938476
0.994766 0.235706 0.937514
0.0607156 0.540459 0.954208
0.0607004 0.511147 0.945571
0.252506 0.495933 0.941192
0.496651 0.484215 0.938323
0.703578 0.475181 0.934249
0.858885 0.467094 0.932052
0.948455 0.46006 0.928985
0.989807 0.454108 0.92697
0.994736 0.448234 0.925048
0.0607767 0.724025 0.948516
0.0607462 0.697643 0.938567
0.2224 0.682689 0.932601
0.469276 0.672663 0.928328
0.680613 0.663661 0.924743
0.841215 0.65655 0.920623
0.93962 0.648524 0.91754
0.984909 0.643534 0.915526
0.994766 0.637644 0.912627
0.0608377 0.8607 0.940917
0.0608072 0.84213 0.930373
0.193301 0.831724 0.923995
0.4439 0.823026 0.918334
0.656535 0.815015 0.91429
0.824552 0.808881 0.910185
0.930816 0.802792 0.906126
0.980041 0.797803 0.903136
0.994812 0.793744 0.900221
0.0608682 0.944656 0.933303
0.060853 0.933898 0.921782
0.164218 0.927352 0.914412
0.417533 0.922621 0.908812
0.634012 0.91754 0.902876
0.806882 0.913359 0.898756
0.920027 0.910201 0.894682
0.975952 0.906172 0.89073
0.994858 0.903197 0.886839
0.0608835 0.984665 0.925658
0.060853 0.97879 0.91223
0.135164 0.976089 0.903822
0.392142 0.97435 0.897337
0.61146 0.971252 0.892378
0.789212 0.969024 0.886351
0.910201 0.967803 0.881315
0.971237 0.965713 0.877333
0.994873 0.963699 0.873442
0.0608835 0.995392 0.917037
0.060853 0.995377 0.902647
0.104219 0.995514 0.893202
0.368688 0.995819 0.885832
0.588907 0.995682 0.879942
0.771511 0.995407 0.873915
0.899367 0.995148 0.868864
0.966125 0.994995 0.86392
0.994873 0.994934 0.859052
0.0608835 0.0629435 0.995499
0.0772412 0.0630045 0.995575
0.382422 0.0634012 0.995972
0.619364 0.0632334 0.995804
0.805982 0.0629435 0.995514
0.925032 0.0626993 0.99527
0.979202 0.0625925 0.995148
0.994949 0.0625467 0.995117
0.994949 0.0625467 0.995117
0.0608835 0.0629435 0.995499
0.0608835 0.0629435 0.995499
0.318959 0.0634012 0.995956
0.560525 0.0632944 0.994904
0.758801 0.0630198 0.992721
0.895506 0.0627604 0.991501
0.966384 0.0626078 0.991348
0.994949 0.0625467 0.990326
0.994949 0.0625467 0.989364
0.0607614 0.325689 0.995377
0.0607614 0.295399 0.991547
0.282765 0.279393 0.990082
0.525124 0.268452 0.988113
0.728222 0.258427 0.986908
0.8757 0.252293 0.985687
0.956832 0.245274 0.984558
0.994827 0.239338 0.983505
0.994827 0.234455 0.982559
0.0607767 0.539544 0.992523
0.0607614 0.510246 0.987732
0.249653 0.494041 0.985275
0.494759 0.482322 0.983352
0.702663 0.473304 0.982162
0.857969 0.46424 0.979965
0.948516 0.457877 0.978821
0.989563 0.451255 0.977768
0.994812 0.447333 0.976791
0.0608377 0.722133 0.988754
0.0608072 0.69575 0.983001
0.2215 0.681483 0.98146
0.466423 0.670802 0.979599
0.678157 0.661784 0.977462
0.840314 0.653696 0.975265
0.93872 0.646662 0.974105
0.984009 0.640696 0.973037
0.994842 0.635782 0.972045
0.0608988 0.859785 0.985
0.0608835 0.84123 0.979248
0.19144 0.829847 0.976699
0.441047 0.821164 0.974884
0.654658 0.813153 0.972763
0.82266 0.807019 0.970581
0.929915 0.800931 0.968444
0.980133 0.795941 0.967361
0.994904 0.792004 0.965408
0.0609445 0.944732 0.981216
0.0609293 0.933074 0.975464
0.162371 0.926452 0.972869
0.414694 0.921736 0.970169
0.631159 0.916671 0.968063
0.80502 0.91249 0.96492
0.919142 0.908354 0.963729
0.975265 0.905303 0.961685
0.994949 0.902312 0.959716
0.0609598 0.984741 0.977417
0.0609445 0.978882 0.971664
0.131395 0.976165 0.968048
0.389303 0.97348 0.965408
0.609598 0.971359 0.962371
0.78735 0.969146 0.960189
0.909316 0.966949 0.957076
0.970367 0.964858 0.955032
0.99498 0.963821 0.953048
0.0609598 0.995483 0.973587
0.0609445 0.995468 0.966873
0.0994888 0.995605 0.96318
0.365866 0.995926 0.95967
0.587045 0.995789 0.956664
0.769665 0.995514 0.953536
0.89752 0.99527 0.95053
0.965438 0.995117 0.948348
0.994995 0.995056 0.946365
0.0608835 0.0629435 0.995499
0.0791791 0.0630198 0.995575
0.383398 0.0634012 0.995972
0.619364 0.0632334 0.995804
0.805982 0.0629435 0.995514
0.925032 0.0626993 0.99527
0.979202 0.0625925 0.995148
0.994949 0.0625467 0.995117
0.994949 0.0625467 0.995117
0.0608835 0.0629435 0.995499
0.0608835 0.0629435 0.995499
0.318959 0.0634012 0.995956
0.559991 0.0632944 0.995865
0.75816 0.063035 0.99559
0.895506 0.0627756 0.995331
0.966384 0.0626078 0.995178
0.994949 0.0625467 0.995117
0.994949 0.0625467 0.995117
0.0607614 0.325689 0.995377
0.0607614 0.294438 0.995377
0.280827 0.27924 0.995819
0.523186 0.266499 0.995789
0.727245 0.256489 0.995529
0.874723 0.250019 0.99527
0.956436 0.242451 0.995087
0.994842 0.2374 0.99501
0.994842 0.232517 0.99501
0.0607767 0.537591 0.995407
0.0607767 0.508293 0.995392
0.248692 0.492103 0.995804
0.493797 0.4804 0.995804
0.701701 0.47039 0.99556
0.857008 0.463279 0.995285
0.947555 0.455283 0.995102
0.988922 0.450309 0.99501
0.994827 0.444434 0.994995
0.0608377 0.72018 0.995468
0.0608377 0.694804 0.995453
0.217624 0.680537 0.995819
0.465461 0.668864 0.99588
0.676905 0.659785 0.995651
0.839353 0.651377 0.995377
0.93875 0.644739 0.995163
0.984054 0.639597 0.995071
0.994873 0.632898 0.995041
0.060914 0.859236 0.995529
0.0608988 0.840284 0.995529
0.188556 0.828901 0.99585
0.438331 0.819242 0.995956
0.653223 0.812207 0.995758
0.821714 0.805097 0.995483
0.928969 0.799542 0.995254
0.979187 0.794064 0.995148
0.994949 0.790097 0.995102
0.0609598 0.943771 0.995575
0.0609598 0.933028 0.995575
0.159503 0.925948 0.995865
0.412772 0.92079 0.996017
0.629236 0.916701 0.99585
0.803098 0.911559 0.995575
0.918196 0.9084 0.995346
0.975311 0.904372 0.995209
0.99501 0.90042 0.995163
0.0609903 0.983795 0.995605
0.0609903 0.978912 0.995605
0.127565 0.975235 0.995819
0.388006 0.973526 0.996063
0.606714 0.970443 0.995911
0.785428 0.968215 0.995636
0.907408 0.966018 0.993484
0.969436 0.963928 0.992386
0.995041 0.962905 0.991363
0.0609903 0.995514 0.995621
0.0609903 0.995514 0.995621
0.0956741 0.995636 0.995743
0.362997 0.995972 0.996078
0.584161 0.99585 0.993072
0.767758 0.995575 0.991852
0.89659 0.995331 0.9897
0.964523 0.995178 0.988586
0.995056 0.995102 0.986603
